X:15
T:Utopian H’pipe,aka. RDO.15
M:2/4
L:1/16
Q:1/4=70
C:untitled in ms,my title
S:Robert D. Owen MS,Indiana,1826.
R:.Hornpipe
O:Indiana,USA
A:New Harmony
N:Yes, lots of semi-quavers!..In an ideal world I’d be able to play out
N:of first position…….CGP..
Z:vmp.Chris Partington
K:F
A2|d>^cd>c d>fe>d|^c>de>c d>ab>a|g>fe>f g>fe>d|c2a2a2A2|!
d>^cdc dfed|=cdcB A2af|dBbg ecc’e|f2a2f2:|!
|:(fg)|a>fa>f g>eg>e|fd^cd e2ag|g>fe>d {e}d>^cd>f|e2a2A2 (=Bc)|!
d>Af>d e>Aa>g|f>ad’>c’ b>ag>f|g>ba>g faA^c|d2f2d2:|

